X:1
T:Kapitan Herre Gott
T:Lupus Hellingk
T:Source : DDT 34---Leipzig---Breitkopf & Härtel---J.Wolf---1908. First publication : Neue Deudsche Geistliche Gesenge---Wittemberg---G.Rhau---1544. Editor : André Vierendeels (20/07/17).
T:Notes : Original clefs : C1, C3, C4, F4 Original note values have been halved Editorial accidentals above the staff
T:Kapitan Herre Gott
T:©
T:©
T:©
T:©
T:©
T:©
C:Lupus Hellingk
Z:©
%%score [ 1 [ 2 3 ] 4 ]
L:1/8
Q:1/4=123
M:2/2
K:C
V:1 treble nm="Soprano" snm="S"
V:2 treble-8 nm="Tenor 1" snm="T 1"
V:3 treble-8 nm="Tenor 2" snm="T 2"
V:4 bass nm="Bass" snm="B"
V:1
 z8 | z8 | E8 | G4 G4 | A4 A4 | G4 z2 G2 | G2 G2 B2 GA | Bc B3 A A2- | A2 G2 A4- | A4 z4 | z4 E4 | %11
w: ||Ka-|pi- tan|Her- re|Gott va-|ter mein, dein Gnad _|_ _ _ _ er-|* * schein|_|mir,|
 E2 E2 F4 | G4 A4- | A2 G2 F2 E2- | E2 D2 E4- | E4 z4 | z8 | z4 E4- | E4 G4 | G4 A4- | A4 G4 | %21
w: weil ich hie|im Le-||* ben bin,|_||denn|_ itzt|auf Erd|_ grosz|
 z2 G2 G2 G2 | B2 GA Bc B2- | BA A4 G2 | A8 | z8 | E4 E2 E2 | F4 G4 | A4 z2 G2 | F2 E4 D2 | E8 | %31
w: Irr- tum sein.|Sieh gnä- * * * *|* * * dig|drein,||dasz mich re-|gier dein|Gnad, Le-|ben und _|Sinn.|
 D4 D2 D2 | EFGE F2 G2- | G2 F2 G4 | z2 A2 G2 F2 | G4 z2 G2- | G2 A2 F2 G2 | A4 z2 D2 | G4 F4 | %39
w: Ent- deck mir,|Herr, _ _ _ den rech-|* ten Grund,|ent- deck mir,|Herr, den|_ rech- * ten|Grund. Die|Stund ist|
 E2 c4 B2 | A2 G2 B2 A2- | AG G4 F2 | G8 | c4 A2 A2 | B2 G4 F2 | E2 D2 E4 | E8- | E8- | E8 | %49
w: nie der _|grösz- * * *|* * * ten|Not,|ver- halt mir|nicht dein gött-|* * lich|Wort.|_||
 z4 z2 A2- | A2 G2 A2 c2- | cB G2 A2 D2 | d6 c2 | B2 A2 G2 c2 | A2 B3 A A2- |"^#" A2 G2 A4- | %56
w: Die|_ Pfort des Le-|* * * * bens|durch den|Tod, _ _ _|bist du al- lein,|_ mein Herr|
"^-natural" A2 G2 F2 E2 | F4 E4- | E8 |] %59
w: _ _ _ _|und Gott.|_|
V:2
 B8 | B4 B4 | c4 c4 | B2 G2 B4 | A3 B c2 A2 | e4 d2 B2 | c4 B4 | d4 c2 A2 | e4 c2 A2 | c4 B2 A2- | %10
w: Ka-|pi- tan|Her- re|Got _ _|Va- * * ter|mein, Dein _|Gnad _|_ _ er-|schein _ _|_ _ _|
 A2 G2 A4 | c4 d2 f2 | e4 z2 A2- | AB c2 d2 e2 | A4 A4- | A4 B4- | B4 B4 | B4 c4- | c4 B2 G2 | %19
w: * * mir,|die weil _|ich hie|_ _ im Le- *|ben bin,|_ denn|_ itzt|auf Erd|_ grosz _|
 B4 A3 B | c2 A2 e4 | d2 B2 c4 | B4 d4 | c2 A2 e4 | c2 A2 c4 | B2 A4 G2 | A4 c4 | d2 f2 e4 | %28
w: Irr- tum _|_ sein. Sieh|gnä- * *||dig drein, dasz|mich re- gier|_ _ dein|Wort _|_ _ _|
 z2 A3 B c2 | d2 e2 A4 | A8 | B6 B2 | c2 Bc d2 e2 | d2 A2 BcdB | c2 d2 e2 c2 | d4 e4- | %36
w: und _ _|_ _ _|Sinn.|Ent- deck|mir, Herr, _ _ _|_ den rech- * * *|* * te Grund.|Die Stund|
 e2 c2 d2 e2 | A6 B2- | B2 AG A2 B2 | c3 B A2 G2 | d3 c de f2 | d2 e2 d4 | d2 B2 e4- | e4 d4- | %44
w: _ _ _ _|ist hie|_ _ _ _ der|grösz- * * *|||* ten Not,|_ ver-|
 d2 e4 d2 | c2 BA B4 | A2 c3 B A2- |"^#" A2 GF G4 | A3 G AB c2 | B2 G2 A4 | B4 A4 | z4 d4- | %52
w: * halt mir|nicht _ _ _|dein gött- * *|* * * lich|Wort. _ _ _ _|Die Pfort des|Le- bens|durch|
 d2 c2 B2 A2 | G2 A2 B2 c2- | c2 d2 f4 | e6 c2 | d2 A3 B c2 |"^#" A2 d4 cB |"^#" c8 |] %59
w: _ _ _ den|Tod _ _ bist|_ du al-|lein, mein|Herr _ _ _|_ und _ _|Gott.|
V:3
 E8 | G4 G4 | A4 A4 | G8 | c4 c4 | B8 | e4 d4- | d2 cB A2 c2 | B4 A4- | A4 z4 | d4 c4- | c2 B2 A4 | %12
w: Ka-|pi- tan|Her- re|Gott|Va- ter|mein,|dein Gnad|_ _ _ _ _|er- schein|_|mir, weil|_ _ ich|
 G4 c3 B | A2 G2 A2 E2 | F4 E4- | E4 E4- | E4 G4 | G4 A4- | A4 G4- | G4 c4 | c4 B4- | B4 e4 | %22
w: hie im _|_ Le- * *|ben bin,|_ denn|_ itzt|auf Erd|_ grosz|_ Irr-|tum sein.|_ Sieh|
 d6 cB | A2 c2 B4 | A8 | z4 d4 | c6 B2 | A4 G4 | c3 B A2 G2 | A2 E2 F4 | E8 | G4 G4 | G4 A4 | %33
w: gnä- * *|* * dig|drein,|dasz|mich re-|gier dein|Gnad, _ _ _|Le- ben Ent|Sinn.|Ent- deck|mir, Herr,|
 A4 G4- | G2 A2 B2 c2- | c2 B2 c4- | c4 z4 | c4 d4- | d4 d4 | e4 c2 d2- | dcBA G2 A2 | B2 c2 A4 | %42
w: den rech-||* ten Grund.|_|Die Stund|_ ist|hie der grosz-||* * ten|
 G4 z2 G2 | E4 F4 | G4 E2 F2 | G2 A4 G2 | A4 c4 | B8 | z4 c4 | d4 d4 | e4 c4 | c4 f4 | f4 d4 | %53
w: Not, ver-|halt mir|nicht dein gött-||Wort. Die|Pfort|des|Le- bens|durch den|Tod bist|du al-|
 d4 e3 d | c2 B2 c2 d2 | B4 A4- | A8- | A8- | A8 |] %59
w: lein, mein _|_ Herr _ _|und Gott.|_|||
V:4
 E,8 | E,4 E,4 | A,,8 | E,8 | F,3 G, A,4 | E,3 F, G,4 | C,4 G,4- | G,2 G,2 A,4 | E,4 F,4- | %9
w: Ka-|pi- tan|Herr'|Gott|Va- * ter|mein, _ _|dein Gnad|_ er schein|_ _|
 F,2 E,2 D,2 C,2 | B,,4 A,,4- | A,,4 D,4 | E,4 A,,2 F,2- | F,2 E,2 D,2 C,2 | D,4 A,,4- | %15
w: ||* mir,|weil ich hie|_ im Le- *|ben bin,|
 A,,4 E,4- | E,4 E,4 | E,4 A,,4- | A,,4 E,4- | E,4 F,3 G, | A,4 E,3 F, | G,4 C,4 | G,6 G,2 | %23
w: _ denn|_ itzt|auf Erd|_ grosz|_ Irr- *|* tum _|sein. Sieh|gnä- dig|
 A,4 E,4 | F,6 E,2 | D,2 C,2 B,,4 | A,,8 | D,4 E,4 | A,,2 F,4 E,2 | D,2 C,2 D,4 | A,,8 | %31
w: dar- *|||ein,|daz mir|re- gier dein|Wort _ und|Sinn.|
 G,,6 G,,2 | C,2 E,2 D,2 C,2 | D,4 G,,2 G,2 | E,2 F,2 G,2 A,2 | G,4 C,3 D, | E,2 F,4 E,2 | %37
w: Ent- deck|mir, Herr _ _|den rech- ten|Grund, den rech- ten|Grund. Die _|_ Stund ist|
 F,4 D,2 G,2- | G,2 F,E, D,4 | C,4 z4 | z2 G,4 F,2 | G,2 C,2 D,4 | G,,4 C,4- | C,2 A,,2 D,4 | %44
w: hie der grösz-|* * * ten|Not,|der _|grösz- ten Not,|ver- halt|_ mir nicht|
 G,,2 C,4 D,2 | E,2 F,2 E,4 | A,,8 | E,8 | z4 A,4 | G,4 F,4 | E,4 F,4- | F,2 E,2 D,4- | D,4 G,4- | %53
w: dein gött- *||lich|Wort.|Die|Pfort des|Le- *|* * bens|_ durch|
 G,2 F,2 E,2 A,2- | A,2 G,2 F,2 D,2 | E,4 A,,4 | D,6 C,2 | D,4 A,,4- | A,,8 |] %59
w: _ _ den Tod|_ bist du al-|lein, mein|Herr _|und Gott.|_|

